src/components/common/AdvancedFilter/icons/delivery.svg

<svg viewBox="0 0 512 512" xmlns="http://www.w3.org/2000/svg"><path fill="#fff" d="m256 0c-140.96875 0-256 115.050781-256 256 0 140.96875 115.050781 256 256 256 140.96875 0 256-115.050781 256-256 0-140.96875-115.050781-256-256-256zm0 482c-124.617188 0-226-101.382812-226-226s101.382812-226 226-226 226 101.382812 226 226-101.382812 226-226 226zm0 0"/><path fill="#fff" d="m181 404.027344 222.042969-148.027344-222.042969-148.027344zm30-240 137.957031 91.972656-137.957031 91.972656zm0 0"/></svg>

<svg viewBox="0 0 512 512" xmlns="http://www.w3.org/2000/svg"><path fill="#fff" d="M256 0C115.031 0 0 115.05 0 256c0 140.969 115.05 256 256 256 140.969 0 256-115.05 256-256C512 115.031 396.95 0 256 0zm0 482C131.383 482 30 380.617 30 256S131.383 30 256 30s226 101.383 226 226-101.383 226-226 226zm0 0"/><path fill="#fff" d="M181 404.027L403.043 256 181 107.973zm30-240L348.957 256 211 347.973zm0 0"/></svg>
